public/images/team.svg

<svg xmlns:xlink="http://www.w3.org/1999/xlink" xmlns="http://www.w3.org/2000/svg" width="40" height="23" viewBox="0 0 40 23" fill="none">
<path d="M19.7143 0C18.1893 0 16.7268 0.605802 15.6484 1.68414C14.5701 2.76247 13.9643 4.22501 13.9643 5.75C13.9643 7.27499 14.5701 8.73753 15.6484 9.81586C16.7268 10.8942 18.1893 11.5 19.7143 11.5C21.2393 11.5 22.7018 10.8942 23.7801 9.81586C24.8585 8.73753 25.4643 7.27499 25.4643 5.75C25.4643 4.22501 24.8585 2.76247 23.7801 1.68414C22.7018 0.605802 21.2393 0 19.7143 0ZM19.7143 3.28571C20.3679 3.28571 20.9947 3.54534 21.4568 4.00749C21.9189 4.46963 22.1786 5.09643 22.1786 5.75C22.1786 6.40357 21.9189 7.03037 21.4568 7.49251C20.9947 7.95466 20.3679 8.21428 19.7143 8.21428C19.0607 8.21428 18.4339 7.95466 17.9718 7.49251C17.5096 7.03037 17.25 6.40357 17.25 5.75C17.25 5.09643 17.5096 4.46963 17.9718 4.00749C18.4339 3.54534 19.0607 3.28571 19.7143 3.28571ZM9.03571 4.92857C7.94643 4.92857 6.90176 5.36129 6.13153 6.13153C5.36129 6.90176 4.92857 7.94643 4.92857 9.03571C4.92857 10.58 5.79929 11.9107 7.04786 12.6171C7.63928 12.9457 8.31286 13.1429 9.03571 13.1429C9.75857 13.1429 10.4321 12.9457 11.0236 12.6171C11.6314 12.2721 12.1407 11.7793 12.5186 11.1879C11.3193 9.62714 10.6786 7.72143 10.6786 5.75C10.6786 5.60214 10.6786 5.43786 10.6786 5.29C10.1857 5.06 9.62714 4.92857 9.03571 4.92857ZM30.3929 4.92857C29.8014 4.92857 29.2429 5.06 28.75 5.29C28.75 5.43786 28.75 5.60214 28.75 5.75C28.75 7.72143 28.1093 9.62714 26.91 11.1879C27.1071 11.5 27.3207 11.7464 27.5671 11.9929C27.83 12.2393 28.0929 12.4529 28.405 12.6171C28.9964 12.9457 29.67 13.1429 30.3929 13.1429C31.1157 13.1429 31.7893 12.9457 32.3807 12.6171C33.6293 11.9107 34.5 10.58 34.5 9.03571C34.5 7.94643 34.0673 6.90176 33.297 6.13153C32.5268 5.36129 31.4821 4.92857 30.3929 4.92857ZM19.7143 14.7857C15.87 14.7857 8.21428 16.7079 8.21428 20.5357V23H31.2143V20.5357C31.2143 16.7079 23.5586 14.7857 19.7143 14.7857ZM7.73786 15.6893C4.56714 16.0671 0 17.6771 0 20.5357V23H4.92857V19.8293C4.92857 18.17 6.06214 16.79 7.73786 15.6893ZM31.6907 15.6893C33.3664 16.79 34.5 18.17 34.5 19.8293V23H39.4286V20.5357C39.4286 17.6771 34.8614 16.0671 31.6907 15.6893ZM19.7143 18.0714C22.2279 18.0714 25.0371 18.8929 26.6636 19.7143H12.765C14.3914 18.8929 17.2007 18.0714 19.7143 18.0714Z" fill="#8D9AC5"/>
</svg>

<svg xmlns="http://www.w3.org/2000/svg" width="40" height="23" fill="none"><path fill="#8D9AC5" d="M19.714 0a5.75 5.75 0 1 0 0 11.5 5.75 5.75 0 0 0 0-11.5m0 3.286a2.464 2.464 0 1 1 0 4.928 2.464 2.464 0 0 1 0-4.928M9.036 4.929a4.107 4.107 0 0 0-4.107 4.107c0 1.544.87 2.875 2.119 3.581a4.1 4.1 0 0 0 1.988.526c.723 0 1.396-.197 1.988-.526a4.3 4.3 0 0 0 1.495-1.43 8.9 8.9 0 0 1-1.84-5.437v-.46a3.9 3.9 0 0 0-1.643-.361m21.357 0c-.592 0-1.15.131-1.643.361v.46c0 1.971-.64 3.877-1.84 5.438.197.312.41.558.657.805.263.246.526.46.838.624a4.1 4.1 0 0 0 1.988.526c.723 0 1.396-.197 1.988-.526 1.248-.706 2.119-2.037 2.119-3.581a4.107 4.107 0 0 0-4.107-4.107m-10.679 9.857c-3.844 0-11.5 1.922-11.5 5.75V23h23v-2.464c0-3.828-7.655-5.75-11.5-5.75m-11.976.903C4.568 16.067 0 17.677 0 20.536V23h4.929v-3.17c0-1.66 1.133-3.04 2.809-4.14m23.953 0c1.675 1.101 2.809 2.481 2.809 4.14V23h4.929v-2.464c0-2.859-4.568-4.469-7.738-4.847m-11.977 2.382c2.514 0 5.323.822 6.95 1.643H12.765c1.626-.821 4.436-1.643 6.95-1.643"/></svg>
